icons/pinterest-line.svg

<svg viewBox="0 0 24 24" fill="currentColor" xmlns="http://www.w3.org/2000/svg"><path d="M8.49161 19.1912C8.51535 18.8546 8.56306 18.5199 8.63456 18.1897C8.69754 17.8951 8.88867 17.0596 9.16872 15.8498L9.17581 15.8191C9.29895 15.2872 9.43089 14.7192 9.56283 14.1525C9.64199 13.8124 9.70356 13.5484 9.74438 13.4602C9.55012 13.0123 9.45298 12.5263 9.45969 12.0373C9.45969 10.6999 10.2157 9.66359 11.1958 9.6636C11.5555 9.65809 11.8996 9.81388 12.1383 10.09C12.3764 10.3655 12.4863 10.7335 12.4404 11.086C12.4404 11.5385 12.3548 11.8844 11.9865 13.1212C11.9158 13.3587 11.8674 13.5254 11.8215 13.692C11.7696 13.8799 11.7261 14.0503 11.6887 14.2136C11.5928 14.6003 11.6811 15.011 11.9262 15.3195C12.1707 15.6272 12.5421 15.7966 12.9319 15.7762C14.4242 15.7762 15.5321 13.7911 15.5321 11.2277C15.5321 9.25804 14.2412 7.95424 12.1 7.95416C11.0224 7.91127 9.97466 8.32523 9.20095 9.09986C8.42664 9.87508 7.99452 10.9437 8.00559 12.0614C7.98214 12.6633 8.17064 13.2536 8.51804 13.7053C8.69915 13.8441 8.76869 14.0885 8.69262 14.2941C8.65157 14.4632 8.55259 14.8473 8.51649 14.9755C8.49464 15.1032 8.41497 15.2131 8.30126 15.2715C8.18678 15.3303 8.05172 15.3297 7.94618 15.2737C6.78507 14.7954 6.14967 13.4963 6.14967 11.8349C6.14967 8.84907 8.64129 6.2497 12.3417 6.2497C15.4772 6.2497 17.8231 8.57864 17.8231 11.3896C17.8231 14.922 15.8911 17.4942 13.1337 17.4942C12.3393 17.5202 11.5838 17.162 11.087 16.535L11.044 16.712C10.9499 17.0992 10.9028 17.2928 10.8368 17.5638L10.8349 17.5715C10.6887 18.1717 10.5867 18.5885 10.5471 18.7452C10.4412 19.0998 10.307 19.448 10.1471 19.7841C10.7421 19.9253 11.3628 20 12.001 20C16.4193 20 20.001 16.4183 20.001 12C20.001 7.58172 16.4193 4 12.001 4C7.5827 4 4.00098 7.58172 4.00098 12C4.00098 15.1594 5.83244 17.8911 8.49161 19.1912ZM12.001 22C6.47813 22 2.00098 17.5228 2.00098 12C2.00098 6.47715 6.47813 2 12.001 2C17.5238 2 22.001 6.47715 22.001 12C22.001 17.5228 17.5238 22 12.001 22Z"/></svg>

<svg xmlns="http://www.w3.org/2000/svg" viewBox="0 0 24 24">
    <g>
        <path fill="none" d="M0 0h24v24H0z"/>
        <path fill-rule="nonzero" d="M8.49 19.191c.024-.336.072-.671.144-1.001.063-.295.254-1.13.534-2.34l.007-.03.387-1.668c.079-.34.14-.604.181-.692a3.46 3.46 0 0 1-.284-1.423c0-1.337.756-2.373 1.736-2.373.36-.006.704.15.942.426.238.275.348.644.302.996 0 .453-.085.798-.453 2.035-.071.238-.12.404-.166.571-.051.188-.095.358-.132.522-.096.386-.008.797.237 1.106a1.2 1.2 0 0 0 1.006.456c1.492 0 2.6-1.985 2.6-4.548 0-1.97-1.29-3.274-3.432-3.274A3.878 3.878 0 0 0 9.2 9.1a4.13 4.13 0 0 0-1.195 2.961 2.553 2.553 0 0 0 .512 1.644c.181.14.25.383.175.59-.041.168-.14.552-.176.68a.41.41 0 0 1-.216.297.388.388 0 0 1-.355.002c-1.16-.479-1.796-1.778-1.796-3.44 0-2.985 2.491-5.584 6.192-5.584 3.135 0 5.481 2.329 5.481 5.14 0 3.532-1.932 6.104-4.69 6.104a2.508 2.508 0 0 1-2.046-.959l-.043.177-.207.852-.002.007c-.146.6-.248 1.017-.288 1.174-.106.355-.24.703-.4 1.04a8 8 0 1 0-1.656-.593zM12 22C6.477 22 2 17.523 2 12S6.477 2 12 2s10 4.477 10 10-4.477 10-10 10z"/>
    </g>
</svg>
